;FLAVOR:Marlin
;TIME:1350
;Filament used: 0.868939m
;Layer height: 0.25
;MINX:78.073
;MINY:98.96
;MINZ:0.2
;MAXX:156.924
;MAXY:136.037
;MAXZ:4.45
;Generated with Cura_SteamEngine 4.11.0
M140 S60
M105
M190 S60
M104 S210
M105
M109 S210
M82 ;absolute extrusion mode
; Ender 3 Custom Start G-code
G92 E0 ; Reset Extruder
G28 ; Home all axes
G1 Z2.0 F3000 ; Move Z Axis up little to prevent scratching of Heat Bed
G1 X0.1 Y20 Z0.3 F5000.0 ; Move to start position
G1 X0.1 Y200.0 Z0.3 F1500.0 E15 ; Draw the first line
G1 X0.4 Y200.0 Z0.3 F5000.0 ; Move to side a little
G1 X0.4 Y20 Z0.3 F1500.0 E30 ; Draw the second line
G92 E0 ; Reset Extruder
G1 Z2.0 F3000 ; Move Z Axis up little to prevent scratching of Heat Bed
G1 X5 Y20 Z0.3 F5000.0 ; Move over to prevent blob squish
G92 E0
G92 E0
G1 F2700 E-5
;LAYER_COUNT:18
;LAYER:0
M107
G0 F6000 X86.701 Y103.039 Z0.2
;TYPE:SKIRT
G1 F2700 E0
G1 F1200 X87.636 Y102.247 E0.04076
G1 X87.972 Y101.993 E0.05476
G1 X88.868 Y101.382 E0.09084
G1 X89.295 Y101.121 E0.10748
G1 X90.467 Y100.499 E0.15161
G1 X90.695 Y100.395 E0.15995
G1 X91.044 Y100.243 E0.17261
G1 X91.244 Y100.16 E0.17981
G1 X92.02 Y99.872 E0.20734
G1 X92.266 Y99.791 E0.21595
G1 X92.736 Y99.648 E0.23229
G1 X92.925 Y99.595 E0.23882
G1 X93.685 Y99.41 E0.26484
G1 X94.119 Y99.321 E0.27957
G1 X95.112 Y99.165 E0.313
G1 X95.642 Y99.106 E0.33074
G1 X96.396 Y99.048 E0.35589
G1 X96.99 Y99.023 E0.37567
G1 X97.401 Y99.013 E0.38934
G1 X97.82 Y99.016 E0.40328
G1 X99.01 Y99.047 E0.44287
G1 X101.594 Y99.077 E0.52882
G1 X104.443 Y99.025 E0.6236
G1 X104.857 Y99.011 E0.63737
G1 X105.133 Y99.005 E0.64655
G1 X105.894 Y98.999 E0.67187
G1 X106.612 Y99.006 E0.69575
G1 X109.249 Y99 E0.78346
G1 X110.649 Y98.966 E0.83003
G1 X111.454 Y98.96 E0.85681
G1 X111.674 Y98.961 E0.86413
G1 X112.454 Y98.973 E0.89007
G1 X113.127 Y98.964 E0.91246
G1 X114.379 Y98.963 E0.9541
G1 X114.81 Y98.971 E0.96844
G1 X117.205 Y99.001 E1.0481
G1 X118.844 Y98.987 E1.10262
G1 X119.865 Y98.97 E1.13658
G1 X120.24 Y98.97 E1.14905
G1 X122.412 Y99.007 E1.2213
G1 X124.773 Y99.005 E1.29983
G1 X125.052 Y99.017 E1.30912
G1 X126.59 Y99.006 E1.36027
G1 X126.809 Y99.007 E1.36756
G1 X127.812 Y99.02 E1.40092
G1 X130.538 Y98.975 E1.4916
G1 X130.75 Y98.968 E1.49866
G1 X131.079 Y98.962 E1.5096
G1 X131.904 Y98.961 E1.53704
G1 X132.599 Y98.972 E1.56016
G1 X133.221 Y98.964 E1.58085
G1 X134.65 Y98.963 E1.62838
G1 X134.915 Y98.966 E1.63719
G1 X135.517 Y98.98 E1.65722
G1 X138.078 Y99.005 E1.7424
G1 X139.837 Y98.98 E1.80091
G1 X140.373 Y98.967 E1.81875
G1 X140.844 Y98.966 E1.83441
G1 X141.206 Y98.973 E1.84645
G1 X141.907 Y99.009 E1.8698
G1 X142.308 Y99.047 E1.8832
G1 X142.686 Y99.09 E1.89585
G1 X143.119 Y99.148 E1.91038
G1 X143.346 Y99.183 E1.91802
G1 X144.203 Y99.351 E1.94707
G1 X144.596 Y99.444 E1.9605
G1 X145.323 Y99.642 E1.98556
G1 X145.613 Y99.732 E1.99566
G1 X146.028 Y99.869 E2.01019
G1 X146.465 Y100.029 E2.02567
G1 X146.701 Y100.121 E2.0341
G1 X147.039 Y100.259 E2.04624
G1 X147.179 Y100.319 E2.05131
G1 X147.573 Y100.497 E2.06569
G1 X147.863 Y100.635 E2.07637
G1 X148.245 Y100.826 E2.09057
G1 X148.665 Y101.055 E2.10648
G1 X148.925 Y101.204 E2.11645
G1 X149.226 Y101.383 E2.1281
G1 X149.338 Y101.452 E2.13247
G1 X149.73 Y101.705 E2.14799
G1 X149.94 Y101.847 E2.15642
G1 X150.276 Y102.083 E2.17008
G1 X150.485 Y102.236 E2.17869
G1 X150.821 Y102.492 E2.19274
G1 X151.241 Y102.825 E2.21057
G1 X151.585 Y103.11 E2.22543
G1 X151.657 Y103.172 E2.22859
G1 X151.986 Y103.467 E2.24329
G1 X152.152 Y103.622 E2.25084
G1 X152.624 Y104.09 E2.27295
G1 X152.829 Y104.306 E2.28285
G1 X153.169 Y104.681 E2.29969
G1 X153.528 Y105.112 E2.31835
G1 X153.751 Y105.394 E2.3303
G1 X154.324 Y106.188 E2.36287
G1 X154.554 Y106.539 E2.37683
G1 X155.073 Y107.418 E2.41078
G1 X155.153 Y107.569 E2.41646
G1 X155.329 Y107.915 E2.42937
G1 X155.446 Y108.156 E2.43828
G1 X155.757 Y108.859 E2.46385
G1 X155.845 Y109.078 E2.4717
G1 X156.008 Y109.508 E2.487
G1 X156.265 Y110.318 E2.51526
G1 X156.446 Y110.975 E2.53793
G1 X156.656 Y111.889 E2.56912
G1 X156.757 Y112.539 E2.591
G1 X156.831 Y113.134 E2.61094
G1 X156.909 Y114.131 E2.6442
G1 X156.918 Y114.405 E2.65332
G1 X156.924 Y114.844 E2.66792
G1 X156.916 Y116.018 E2.70697
G1 X156.919 Y116.301 E2.71638
G1 X156.912 Y116.927 E2.73721
G1 X156.891 Y118.083 E2.77566
G1 X156.861 Y118.724 E2.797
G1 X156.819 Y119.272 E2.81528
G1 X156.692 Y120.294 E2.84954
G1 X156.653 Y120.521 E2.8572
G1 X156.546 Y121.064 E2.87561
G1 X156.481 Y121.354 E2.88549
G1 X156.24 Y122.248 E2.91629
G1 X156.151 Y122.531 E2.92615
G1 X155.963 Y123.078 E2.94539
G1 X155.783 Y123.552 E2.96226
G1 X155.746 Y123.644 E2.96555
G1 X155.583 Y124.027 E2.9794
G1 X155.478 Y124.262 E2.98796
G1 X155.19 Y124.859 E3.01
G1 X154.932 Y125.354 E3.02857
G1 X154.626 Y125.901 E3.04942
G1 X154.567 Y126 E3.05325
G1 X154.284 Y126.45 E3.07093
G1 X154.146 Y126.658 E3.07923
G1 X153.967 Y126.921 E3.08981
G1 X153.883 Y127.04 E3.09466
G1 X153.633 Y127.38 E3.1087
G1 X153.48 Y127.58 E3.11707
G1 X153.166 Y127.971 E3.13375
G1 X153.103 Y128.046 E3.13701
G1 X152.754 Y128.442 E3.15456
G1 X152.382 Y128.844 E3.17278
G1 X151.651 Y129.563 E3.20688
G1 X151.477 Y129.719 E3.21466
G1 X150.832 Y130.255 E3.24255
G1 X150.591 Y130.44 E3.25265
G1 X150.224 Y130.71 E3.26781
G1 X149.447 Y131.218 E3.29868
G1 X149.227 Y131.349 E3.3072
G1 X148.613 Y131.689 E3.33054
G1 X148.324 Y131.837 E3.34134
G1 X147.413 Y132.252 E3.37464
G1 X147.107 Y132.375 E3.38561
G1 X146.131 Y132.715 E3.41998
G1 X145.905 Y132.782 E3.42782
G1 X145.125 Y132.983 E3.45461
G1 X144.864 Y133.04 E3.4635
G1 X143.936 Y133.201 E3.49483
G1 X143.713 Y133.23 E3.50231
G1 X143.287 Y133.277 E3.51656
G1 X143.031 Y133.3 E3.52511
G1 X140.42 Y133.572 E3.61242
G1 X137.939 Y133.902 E3.69567
G1 X135.422 Y134.31 E3.78048
G1 X133.006 Y134.771 E3.86228
G1 X130.911 Y135.239 E3.93368
G1 X129.53 Y135.543 E3.98071
G1 X128.949 Y135.654 E4.00038
G1 X128.663 Y135.701 E4.01002
G1 X128.14 Y135.774 E4.02759
G1 X127.984 Y135.792 E4.03281
G1 X127.58 Y135.832 E4.04631
G1 X127.337 Y135.851 E4.05442
G1 X126.813 Y135.879 E4.07187
G1 X126.582 Y135.886 E4.07956
G1 X125.819 Y135.883 E4.10494
G1 X125.333 Y135.864 E4.12112
G1 X124.979 Y135.844 E4.13291
G1 X123.352 Y135.727 E4.18716
G1 X123.267 Y135.72 E4.19
G1 X120.725 Y135.574 E4.27469
G1 X118.237 Y135.502 E4.35747
G1 X115.714 Y135.5 E4.44139
G1 X113.192 Y135.57 E4.5253
G1 X110.702 Y135.709 E4.60825
G1 X108.637 Y135.895 E4.67721
G1 X107.733 Y135.964 E4.70736
G1 X107.358 Y135.986 E4.71986
G1 X106.573 Y136.019 E4.74599
G1 X106.195 Y136.029 E4.75857
G1 X105.933 Y136.031 E4.76728
G1 X105.66 Y136.029 E4.77636
G1 X104.903 Y136.016 E4.80154
G1 X103.426 Y135.975 E4.85069
G1 X100.91 Y135.975 E4.93437
G1 X98.969 Y136.023 E4.99895
G1 X98.482 Y136.036 E5.01515
G1 X98.329 Y136.037 E5.02024
G1 X97.99 Y136.034 E5.03151
G1 X97.661 Y136.026 E5.04246
G1 X96.981 Y135.988 E5.06511
G1 X96.171 Y135.918 E5.09215
G1 X95.801 Y135.88 E5.10452
G1 X95.602 Y135.856 E5.11119
G1 X95.17 Y135.796 E5.1257
G1 X94.529 Y135.687 E5.14732
G1 X94.094 Y135.603 E5.16206
G1 X93.857 Y135.552 E5.17012
G1 X93.41 Y135.446 E5.1854
G1 X93.059 Y135.355 E5.19746
G1 X92.461 Y135.182 E5.21817
G1 X92.171 Y135.089 E5.2283
G1 X91.383 Y134.802 E5.25619
G1 X91.184 Y134.721 E5.26334
G1 X90.571 Y134.45 E5.28563
G1 X90.421 Y134.378 E5.29116
G1 X89.807 Y134.059 E5.31417
G1 X89.498 Y133.886 E5.32595
G1 X88.789 Y133.453 E5.35358
G1 X88.676 Y133.378 E5.3581
G1 X88.168 Y133.02 E5.37877
G1 X87.866 Y132.794 E5.39131
G1 X87.113 Y132.176 E5.42371
G1 X86.816 Y131.908 E5.43702
G1 X86.379 Y131.502 E5.45686
G1 X84.438 Y129.747 E5.54389
G1 X83.362 Y128.82 E5.59113
G1 X82.946 Y128.45 E5.60965
G1 X82.747 Y128.267 E5.61864
G1 X82.528 Y128.061 E5.62864
G1 X81.766 Y127.269 E5.66519
G1 X81.659 Y127.146 E5.67061
G1 X81.362 Y126.79 E5.68603
G1 X81.152 Y126.527 E5.69723
G1 X80.573 Y125.731 E5.72997
G1 X80.491 Y125.607 E5.73491
G1 X80.228 Y125.189 E5.75134
G1 X80.049 Y124.89 E5.76293
G1 X79.58 Y124.02 E5.7958
G1 X79.511 Y123.877 E5.80108
G1 X79.302 Y123.419 E5.81783
G1 X79.167 Y123.103 E5.82925
G1 X78.785 Y122.066 E5.86601
G1 X78.734 Y121.903 E5.87169
G1 X78.611 Y121.481 E5.88631
G1 X78.525 Y121.162 E5.8973
G1 X78.294 Y120.097 E5.93355
G1 X78.267 Y119.934 E5.93904
G1 X78.206 Y119.521 E5.95293
G1 X78.164 Y119.19 E5.96402
G1 X78.082 Y118.13 E5.99938
G1 X78.077 Y117.961 E6.00501
G1 X78.073 Y117.526 E6.01948
G1 X78.076 Y117.225 E6.02949
G1 X78.133 Y116.206 E6.06343
G1 X78.156 Y115.983 E6.07089
G1 X78.221 Y115.472 E6.08802
G1 X78.267 Y115.167 E6.09828
G1 X78.487 Y114.081 E6.13514
G1 X78.531 Y113.909 E6.14104
G1 X78.648 Y113.487 E6.15561
G1 X78.74 Y113.179 E6.1663
G1 X79.096 Y112.17 E6.20189
G1 X79.176 Y111.974 E6.20893
G1 X79.324 Y111.627 E6.22147
G1 X79.438 Y111.373 E6.23073
G1 X79.974 Y110.331 E6.26971
G1 X80.075 Y110.158 E6.27637
G1 X80.274 Y109.831 E6.2891
G1 X80.435 Y109.576 E6.29913
G1 X80.954 Y108.825 E6.32949
G1 X81.043 Y108.707 E6.33441
G1 X81.429 Y108.224 E6.35497
G1 X81.666 Y107.944 E6.36718
G1 X82.284 Y107.273 E6.39752
G1 X82.539 Y107.023 E6.40939
G1 X83.094 Y106.498 E6.4348
G1 X84.295 Y105.389 E6.48917
G1 X86.127 Y103.601 E6.57432
G1 X86.324 Y103.403 E6.58361
G1 X86.547 Y103.185 E6.59398
G1 X86.701 Y103.039 E6.60104
G0 F6000 X86.976 Y103.33
G1 F1200 X87.877 Y102.566 E6.64033
G1 X88.213 Y102.312 E6.65434
G1 X89.077 Y101.724 E6.6891
G1 X89.504 Y101.463 E6.70574
G1 X90.633 Y100.863 E6.74827
G1 X90.861 Y100.759 E6.7566
G1 X91.197 Y100.613 E6.76879
G1 X91.397 Y100.53 E6.77599
G1 X92.145 Y100.252 E6.80253
G1 X92.391 Y100.171 E6.81114
G1 X92.844 Y100.033 E6.82689
G1 X93.033 Y99.98 E6.83342
G1 X93.766 Y99.802 E6.85851
G1 X94.2 Y99.713 E6.87325
G1 X95.156 Y99.562 E6.90544
G1 X95.686 Y99.503 E6.92317
G1 X96.413 Y99.447 E6.94743
G1 X97.007 Y99.422 E6.9672
G1 X97.406 Y99.413 E6.98047
G1 X97.81 Y99.416 E6.99391
G1 X98.995 Y99.447 E7.03334
G1 X101.597 Y99.477 E7.11989
G1 X104.464 Y99.424 E7.21526
G1 X104.87 Y99.411 E7.22877
G1 X105.136 Y99.405 E7.23762
G1 X105.897 Y99.399 E7.26293
G1 X106.608 Y99.406 E7.28658
G1 X109.26 Y99.4 E7.37479
G1 X110.659 Y99.366 E7.42133
G1 X110.864 Y99.363 E7.42815
G1 X111.456 Y99.36 E7.44784
G1 X111.668 Y99.361 E7.45489
G1 X112.453 Y99.373 E7.481
G1 X113.128 Y99.364 E7.50346
G1 X114.38 Y99.363 E7.5451
G1 X114.659 Y99.366 E7.55438
G1 X114.873 Y99.371 E7.5615
G1 X117.204 Y99.401 E7.63903
G1 X118.847 Y99.387 E7.69368
G1 X119.872 Y99.37 E7.72778
G1 X120.233 Y99.37 E7.73979
G1 X122.405 Y99.407 E7.81204
G1 X124.773 Y99.405 E7.8908
G1 X125.048 Y99.417 E7.89995
G1 X126.593 Y99.406 E7.95134
G1 X126.804 Y99.407 E7.95836
G1 X127.78 Y99.42 E7.99082
G1 X130.617 Y99.373 E8.0852
G1 X130.763 Y99.368 E8.09005
G1 X131.08 Y99.362 E8.1006
G1 X131.898 Y99.361 E8.12781
G1 X132.599 Y99.372 E8.15113
G1 X133.222 Y99.364 E8.17185
G1 X134.651 Y99.363 E8.21938
G1 X134.906 Y99.366 E8.22786
G1 X135.432 Y99.378 E8.24536
G1 X138.122 Y99.404 E8.33483
G1 X139.85 Y99.379 E8.39231
G1 X140.382 Y99.367 E8.41001
G1 X140.836 Y99.366 E8.42511
G1 X141.198 Y99.373 E8.43715
G1 X141.873 Y99.408 E8.45963
G1 X142.263 Y99.445 E8.47266
G1 X142.641 Y99.488 E8.48532
G1 X143.058 Y99.544 E8.49931
G1 X143.285 Y99.579 E8.50695
G1 X144.111 Y99.74 E8.53494
G1 X144.504 Y99.833 E8.54837
G1 X145.205 Y100.024 E8.57254
G1 X145.495 Y100.114 E8.58264
G1 X145.899 Y100.248 E8.59679
G1 X146.32 Y100.402 E8.6117
G1 X146.556 Y100.494 E8.62013
G1 X146.882 Y100.627 E8.63184
G1 X147.022 Y100.687 E8.6369
G1 X147.401 Y100.858 E8.65073
G1 X147.691 Y100.996 E8.66142
G1 X148.062 Y101.182 E8.67522
G1 X148.466 Y101.402 E8.69052
G1 X148.726 Y101.551 E8.70049
G1 X149.016 Y101.723 E8.7117
G1 X149.128 Y101.792 E8.71608
G1 X149.506 Y102.036 E8.73104
G1 X149.716 Y102.178 E8.73947
G1 X150.039 Y102.406 E8.75262
G1 X150.248 Y102.559 E8.76124
G1 X150.573 Y102.806 E8.77481
G1 X150.993 Y103.139 E8.79264
G1 X151.324 Y103.413 E8.80693
G1 X151.396 Y103.475 E8.81009
G1 X151.713 Y103.759 E8.82425
G1 X151.879 Y103.914 E8.8318
G1 X152.334 Y104.365 E8.85311
G1 X152.539 Y104.581 E8.86302
G1 X152.869 Y104.945 E8.87936
G1 X153.214 Y105.36 E8.89731
G1 X153.437 Y105.642 E8.90926
G1 X153.989 Y106.407 E8.94064
G1 X154.219 Y106.758 E8.9546
G1 X154.72 Y107.606 E8.98736
G1 X154.8 Y107.757 E8.99304
G1 X154.969 Y108.09 E9.00546
G1 X155.086 Y108.331 E9.01437
G1 X155.386 Y109.008 E9.039
G1 X155.474 Y109.227 E9.04685
G1 X155.631 Y109.644 E9.06167
G1 X155.879 Y110.425 E9.08892
G1 X156.06 Y111.082 E9.11159
G1 X156.266 Y111.979 E9.1422
G1 X156.36 Y112.589 E9.16273
G1 X156.434 Y113.184 E9.18267
G1 X156.509 Y114.144 E9.2147
G1 X156.518 Y114.418 E9.22382
G1 X156.524 Y114.841 E9.23789
G1 X156.514 Y116.187 E9.28266
G1 X156.519 Y116.296 E9.28629
G1 X156.512 Y116.92 E9.30704
G1 X156.491 Y118.076 E9.3455
G1 X156.462 Y118.693 E9.36604
G1 X156.42 Y119.241 E9.38432
G1 X156.298 Y120.226 E9.41733
G1 X156.259 Y120.453 E9.42499
G1 X156.155 Y120.976 E9.44273
G1 X156.09 Y121.266 E9.45261
G1 X155.859 Y122.128 E9.4823
G1 X155.77 Y122.411 E9.49216
G1 X155.589 Y122.938 E9.5107
G1 X155.508 Y123.155 E9.5184
G1 X155.374 Y123.495 E9.53055
G1 X155.218 Y123.864 E9.54388
G1 X155.113 Y124.099 E9.55244
G1 X154.835 Y124.674 E9.57368
G1 X154.577 Y125.169 E9.59225
G1 X154.283 Y125.697 E9.61235
G1 X154.224 Y125.796 E9.61618
G1 X153.951 Y126.229 E9.63321
G1 X153.813 Y126.437 E9.64151
G1 X153.64 Y126.69 E9.6517
G1 X153.556 Y126.809 E9.65655
G1 X153.315 Y127.137 E9.67009
G1 X153.162 Y127.337 E9.67846
G1 X152.859 Y127.714 E9.69455
G1 X152.796 Y127.789 E9.69781
G1 X152.46 Y128.17 E9.7147
G1 X152.088 Y128.572 E9.73292
G1 X151.384 Y129.265 E9.76577
G1 X151.21 Y129.421 E9.77355
G1 X150.589 Y129.937 E9.8004
G1 X150.348 Y130.122 E9.81051
G1 X149.991 Y130.385 E9.82525
G1 X149.242 Y130.875 E9.85502
G1 X149.022 Y131.006 E9.86354
G1 X148.431 Y131.333 E9.88601
G1 X148.142 Y131.481 E9.8968
G1 X147.263 Y131.881 E9.92892
G1 X146.957 Y132.004 E9.93989
G1 X146.017 Y132.332 E9.97301
G1 X145.791 Y132.399 E9.98085
G1 X145.04 Y132.592 E10.00664
G1 X144.779 Y132.649 E10.01552
G1 X143.884 Y132.804 E10.04573
G1 X143.661 Y132.833 E10.05321
G1 X143.251 Y132.879 E10.06694
G1 X142.949 Y132.906 E10.07702
G1 X140.362 Y133.176 E10.16353
G1 X137.894 Y133.504 E10.24634
G1 X135.355 Y133.915 E10.33189
G1 X132.903 Y134.383 E10.41491
G1 X130.825 Y134.848 E10.48574
G1 X129.444 Y135.152 E10.53277
G1 X128.884 Y135.26 E10.55174
G1 X128.598 Y135.307 E10.56138
G1 X128.094 Y135.377 E10.5783
G1 X127.938 Y135.395 E10.58352
G1 X127.549 Y135.433 E10.59652
G1 X127.306 Y135.452 E10.60463
G1 X126.801 Y135.479 E10.62145
G1 X126.57 Y135.486 E10.62914
G1 X125.835 Y135.483 E10.65358
G1 X125.349 Y135.464 E10.66976
G1 X125.007 Y135.445 E10.68115
G1 X123.386 Y135.328 E10.73521
G1 X123.325 Y135.323 E10.73724
G1 X120.76 Y135.176 E10.8227
G1 X118.214 Y135.102 E10.90741
G1 X115.703 Y135.1 E10.99093
G1 X113.158 Y135.17 E11.07561
G1 X110.702 Y135.308 E11.15742
G1 X108.607 Y135.496 E11.22738
G1 X107.703 Y135.565 E11.25754
G1 X107.341 Y135.587 E11.2696
G1 X106.556 Y135.62 E11.29573
G1 X106.192 Y135.629 E11.30784
G1 X105.93 Y135.631 E11.31656
G1 X105.667 Y135.629 E11.3253
G1 X104.914 Y135.616 E11.35035
G1 X103.437 Y135.575 E11.3995
G1 X100.9 Y135.575 E11.48388
G1 X99.031 Y135.621 E11.54606
G1 X98.779 Y135.63 E11.55445
G1 X98.326 Y135.637 E11.56952
G1 X97.999 Y135.634 E11.58039
G1 X97.67 Y135.626 E11.59134
G1 X97.015 Y135.59 E11.61316
G1 X96.205 Y135.52 E11.6402
G1 X95.849 Y135.483 E11.6521
G1 X95.65 Y135.459 E11.65877
G1 X95.229 Y135.4 E11.67291
G1 X94.995 Y135.362 E11.68079
G1 X94.597 Y135.293 E11.69423
G1 X94.178 Y135.212 E11.70842
G1 X93.941 Y135.161 E11.71648
G1 X93.511 Y135.059 E11.73118
G1 X93.16 Y134.968 E11.74324
G1 X92.583 Y134.801 E11.76322
G1 X92.293 Y134.708 E11.77335
G1 X91.534 Y134.432 E11.80021
G1 X91.335 Y134.351 E11.80736
G1 X90.744 Y134.089 E11.82886
G1 X90.594 Y134.017 E11.8344
G1 X90.003 Y133.71 E11.85655
G1 X89.694 Y133.537 E11.86832
G1 X89.01 Y133.12 E11.89497
G1 X88.897 Y133.045 E11.89948
G1 X88.408 Y132.7 E11.91938
G1 X88.106 Y132.474 E11.93193
G1 X87.38 Y131.879 E11.96315
G1 X87.088 Y131.614 E11.97627
G1 X86.639 Y131.197 E11.99665
G1 X84.727 Y129.469 E12.08236
G1 X83.623 Y128.517 E12.13085
G1 X83.213 Y128.152 E12.14911
G1 X83.021 Y127.976 E12.15777
